X: 9
T: Deck the Hall v.2
P: piffero secondo c0010
O: Welsh traditional
%R: march
F: http://ancients.sudburymuster.org/mus/col/pdf/carolsF.pdf
Z: 2020 John Chambers <jc:trillian.mit.edu>
M: 4/4
L: 1/8
K: G
% - - - - - - - - - -
[|\
B3A G2c2 | B2A2 G2B2 | cBAF  G3c  | B2A2 B4 |\
B3A G2c2 | B2A2 G2B2 | cBAF  G3c  | B2A2 B4 |
F3G A2F2 | G3A  B2F2 | d^cBA GFE2 | A2G2 F4 |\
B3A G2c2 | B2A2 G2B2 | cBAB  c4   | d2c2 B4 |]
%% - - - - - - - - - -


